X:067
T:Paddy’s Resource TS.067
M:6/8
L:1/8
Q:3/8=110
S:Thomas Sands’ MS,1810,Lincolnshire
R:jig
O:England;Lincolnshire
Z:vmp.Ruairidh Greig, 2011
K:F
C|F>GF CA,C|F>GFd2c| dcB AGF|GDDD2E|
F>GF CA,C|F>GFd2c|cde fcB|AFFF2:|
|:A|CFA AFC|CEG GEC|CFA AGF|A>BA”tr”G2F|
F>Ac fed|cAFG2F|AFD C>DF|AFFF2:|]

